Papirus/22x22/devices/drive-harddisk.svg

<?xml version="1.0" encoding="UTF-8" standalone="no"?>
<svg xmlns="http://www.w3.org/2000/svg" height="22" width="22" version="1">
 <rect style="fill:#848484" transform="matrix(0,-1,-1,0,0,0)" rx="1" ry="1" height="16" width="20" y="-19" x="-21"/>
 <path style="opacity:0.2" d="m 3,20 0,0.5 c 0,0.554 0.446,1 1,1 l 14,0 c 0.554,0 1,-0.446 1,-1 L 19,20 c 0,0.554 -0.446,1 -1,1 L 4,21 C 3.446,21 3,20.554 3,20 Z"/>
 <path style="opacity:0.3;fill:#000000;fill-opacity:1;enable-background:new" d="M 11,4 C 8.2386,4 6,6.2386 6,9 l 0,5 5,0 c 2.7614,0 5,-2.2386 5,-5 0,-2.7614 -2.2386,-5 -5,-5 z m 0,2 c 1.65684,0 3,1.34316 3,3 0,1.65684 -1.34316,3 -3,3 C 9.34316,12 8,10.65684 8,9 8,7.34316 9.34316,6 11,6 Z"/>
 <path style="opacity:0.1;fill:#ffffff" d="M 4,1 C 3.446,1 3,1.446 3,2 l 0,0.5 c 0,-0.554 0.446,-1 1,-1 l 14,0 c 0.554,0 1,0.446 1,1 L 19,2 C 19,1.446 18.554,1 18,1 L 4,1 Z"/>
</svg>

<svg xmlns="http://www.w3.org/2000/svg" width="22" height="22" version="1">
 <rect style="opacity:0.2" width="20" height="16" x="-21.5" y="-19" rx="1" ry="1" transform="matrix(0,-1,-1,0,0,0)"/>
 <rect style="fill:#8e8e8e" width="20" height="16" x="-21" y="-19" rx="1" ry="1" transform="matrix(0,-1,-1,0,0,0)"/>
 <path style="opacity:0.5" d="M 11,4 C 8.2386,4 6,6.2386 6,9 V 14 H 11 C 13.761,14 16,11.761 16,9 16,6.2386 13.761,4 11,4 Z M 11,6 C 12.657,6 14,7.3432 14,9 14,10.657 12.657,12 11,12 9.343,12 8,10.657 8,9 8,7.3432 9.343,6 11,6 Z"/>
 <path style="opacity:0.2;fill:#ffffff" d="M 4,1 C 3.446,1 3,1.446 3,2 V 2.5 C 3,1.946 3.446,1.5 4,1.5 H 18 C 18.554,1.5 19,1.946 19,2.5 V 2 C 19,1.446 18.554,1 18,1 Z"/>
</svg>
